X:1
T:Egmont Overture (theme)
C:Ludwig van Beethoven
M:4/4
L:1/8
Q:1/4=144
K:Fm
|F4 z2 F2|G4 A4|c4 B2A2|G8|c2c2 c2B2|A2G2 F4|G2F2 G2A2|F8|F2A2 c2A2|G2B2 G4|F2A2 c3B|A8|]
